X: 4803
T:London Lasses, The
M:4/4
L:1/8
K:G
|:G2BG dGBd|eaag efg2|G2BG dGBG|egdB AGEF|!
G3B dGBd|eaag efga|bgag egfa|gedB AGEF:|!
|:g2fg efge|dG{A} (3GFG BGBd|g2fg efge|dBGA BAA2|!
g2fg efge|dBB2 dega|bgag egfa|gedB AGEF:|!
%C:/music/abc/abcfiles/layton/big4.abc
